src/assets/img/icons/results-icon.svg

<svg width="20" height="20" viewBox="0 0 20 20" fill="none" xmlns="http://www.w3.org/2000/svg">
<g clip-path="url(#clip0_10888_13863)">
<path d="M16 1H4C2.34315 1 1 2.34315 1 4V16C1 17.6569 2.34315 19 4 19H16C17.6569 19 19 17.6569 19 16V4C19 2.34315 17.6569 1 16 1Z" stroke="#17233A" stroke-width="2" stroke-linecap="round" stroke-linejoin="round"/>
<path d="M4 6L15 6" stroke="#17233A" stroke-width="2" stroke-linecap="round" stroke-linejoin="round"/>
<path d="M4 11.6667H5.34483L7.13793 15L9.82759 10L12.069 15L13.8621 12.5H16" stroke="#17233A" stroke-width="2" stroke-linecap="round" stroke-linejoin="round"/>
</g>
<defs>
<clipPath id="clip0_10888_13863">
<rect width="20" height="20" fill="white"/>
</clipPath>
</defs>
</svg>

<svg xmlns="http://www.w3.org/2000/svg" width="20" height="20" fill="none">
  <g stroke="#17233A" stroke-linecap="round" stroke-linejoin="round" stroke-width="2" clip-path="url(#a)">
    <path d="M16 1H4a3 3 0 0 0-3 3v12a3 3 0 0 0 3 3h12a3 3 0 0 0 3-3V4a3 3 0 0 0-3-3M4 6h11"/>
    <path d="M4 11.667h1.345L7.138 15l2.69-5 2.241 5 1.793-2.5H16"/>
  </g>
  <defs>
    <clipPath id="a">
      <path fill="#fff" d="M0 0h20v20H0z"/>
    </clipPath>
  </defs>
</svg>
